X: 30255
T: Old King's
R: reel
M: 4/4
K: Adorian
A|EA,A,B, A,2>A2|EA,EF GEDB,|~A,2 A,B,C2>D2|EGDC B,G,G,A|
EA,A,B, A,G,A,B,|A,2 EF GEDB,|~A,2 A,B,C2>D2|EGDC B,G,G,d|
^cA ~A2 ^cded|^cABc dBGB|BeAB =c2 ef|gage dcBe|
^cA ~A2 ^cded|^cABc dBGB|=c2 BG AcBA|GEDC B,G,G,||

